X: 9648
T: Day They Spent Together, The
R: reel
M: 4/4
K: Gmajor
|:E|B3E EGGB|c2 A2 A3G|F3D DF F3/2A/|c2 B2 B3E|
G3E EGGA|G2 D2 D3G|E3A AEEG|F4 A3:|
|:d|d3c BA G3/2F/|F2 E2 E3E|e3d cB AG|G2 F2 F3D|
d3c BA G2|e3d dc c3/2A/|B3D DG Gd|d3D DF FA|d4 d3:|

